X:1
T:Title
%%score { ( 1 3 ) | ( 2 4 ) }
L:1/8
M:6/8
K:Ab
V:1 treble nm="Grand Piano"
V:3 treble 
V:2 bass 
V:4 bass 
V:1
 z3 z2[Q:1/4=93] [CE] | [Ec]2 B A2 G | G2 F B2 B/c/ | [Fd]2 [FB] G2 E | c3- c2 [CE] | %5
 [Ec]2 B A2 G | G2 F B2 B/A/ | G2 d c2 B | [CA]6 | [Ec]3 BAB | c3 .A3 | c3 BAB | c3 .A3 | %13
 FFF [FB][FA][DF] | [CE]2 [CA] [CA]2 [Ec] | [=Dc]2 [DB] [DA]2 F | B6 | %17
 [A,CA][A,DA][A,EA] [A,FA][B,=EG][A,FA] | [Ec]2 [CA] [CE]2 E | F2 [EG] [FA]2 [FB] | [=Ec]6 | %21
 FFF [GB][FA][A,DF] | [A,CE][E,C][K:treble][A,E] .[CEA]3 | c3 BAB |[M:5/8] [CA]-[CA]- [CA]3 |] %25
V:2
 z3 z2 [A,,A,] | [A,,A,]2 [E,G,D] [F,A,C]2 [D,A,E] | [D,F,D]2 [D,F,D] [D,F,D]2 [D,A,]/[C,=A,]/ | %3
 [B,,B,]2 [D,B,] [E,DE]2 [G,D] | [A,E]3- [A,E]2 [A,,A,] | [A,,A,]2 [E,G,D] [F,A,C]2 [D,A,E] | %6
 [D,F,D]2 [D,F,D] [D,F,D]2 [D,F,D] | [E,B,D]2 [E,G,F] [E,A,E]2 [E,G,D] | [A,,A,]6 | %9
 [A,,A,]3 [E,G,D][E,F,C][E,G,D] | E3 z3 | [A,E]3 [E,G,D][E,F,C][E,G,D] | E3 z3 | %13
 [D,A,D][D,A,D][D,A,D] [D,D][D,D][D,A,] | [A,,A,]2 [A,,E,] [A,,A,]2 [A,,A,] | %15
 [B,,A,]2 [B,,A,] [B,,F,]2 [=D,A,B,] | [E,D]6 | A,,B,,C, D,D,D, | %18
 [A,,A,]2 [A,,E,] [A,,A,]2 [C,A,] | [D,A,D]2 [D,A,] [D,D]2 [D,F,] | [C,G,]6 | %21
 [D,A,][D,A,D][D,A,D] [D,D][D,D]D, | A,,A,,A,, .A,,3 | [E,A,E]3 [E,G,D][E,C][E,G,D] | %24
[M:5/8] [A,,A,]-[A,,A,]- [A,,A,]3 |] %25
V:3
 x6 | x6 | z3 z2 F | x6 | x6 | x6 | x6 | x6 | x6 | x6 | x6 | x6 | x6 | x6 | x6 | x6 | z3 .G,3 | %17
 x6 | x6 | x6 | x6 | x6 | x2[K:treble] x4 | x6 |[M:5/8] x5 |] %25
V:4
 x6 | x6 | x6 | x6 | x6 | x6 | x6 | x6 | x6 | x6 | A,3- [A,C]3 | x6 | A,3- [A,C]3 | x6 | x6 | x6 | %16
 A,3 z3 | x6 | x6 | x6 | x6 | x6 | x6 | x6 |[M:5/8] x5 |] %25

